packages/nodes-base/nodes/HighLevel/highLevel.svg

<svg xmlns="http://www.w3.org/2000/svg" width="400" height="400"><g fill-rule="evenodd"><path fill="#d5b718" d="M42.102 52.191C16.992 77.309 1.219 92.8.753 92.8c-.612 0-.753.3-.753 1.6V96h26.414c23.642 0 26.518.068 27.4.646l.986.646v267.85l1.054.829c1.287 1.013 52.204 1.332 54.379.341l1.07-.487-.144-133.613c-.079-73.486-.014-133.972.144-134.413.725-2.017.195-1.982 28.032-1.866 18.445.076 26.088-.02 26.465-.333 1.101-.914 5.539 3.721-47.763-49.883-18.295-18.398-33.598-33.474-34.217-33.71-1.105-.42-1.701.154-41.718 40.184"/><path fill="#1988e9" d="M197.8 141.54c-.917.298-1.909 1.264-32.204 31.344a55620 55620 0 0 1-36.919 36.627c-16.279 16.128-15.709 15.514-14.77 15.875.369.141 12.645.243 27.282.226 23.637-.027 26.712.04 27.511.601l.9.632v68.959c0 51.479.118 69.217.464 69.977l.464 1.019h55.054l.675-1.031c.63-.961.657-5.6.407-68.741-.147-37.24-.153-68.284-.012-68.986.506-2.531-.269-2.466 28.951-2.431 14.522.018 26.585-.08 26.806-.217.915-.565-2.334-3.946-32.787-34.109-36.242-35.895-33.361-33.026-42.006-41.838-5.816-5.929-8.422-8.339-8.878-8.207-.076.022-.498.157-.938.3"/><path fill="#34c734" d="M312.279 12.444c-.798.464-11.214 10.933-30.079 30.234-6.82 6.977-13.64 13.864-15.156 15.304-2.296 2.181-15.324 15.307-30.589 30.818-4.565 4.639-5.813 6.251-5.165 6.67.28.182 12.165.392 26.409.469l25.899.138 1.2 1.121 1.199 1.12.001 133.266c0 89.364.134 133.515.406 134.023.223.417.989.866 1.701.997 2.748.506 51.645.025 52.595-.518l.9-.514.009-133.686c.009-131.212.023-133.705.777-134.686l.768-1 26.403-.2c19.897-.151 26.523-.319 26.887-.684.493-.493-80.286-81.805-82.318-82.861-1.035-.539-.941-.539-1.847-.011"/><path fill="#fbfbfb" d="M0 45.6c0 42.998.04 45.6.693 45.6.387 0 18.687-17.987 41.36-40.653C80.812 11.801 82.773 9.906 83.86 10.171c1.023.249 10.112 9.116 21.1 20.585 1.518 1.584 3.15 3.187 3.626 3.562s1.203 1.197 1.615 1.826c.789 1.206 2.916 3.456 3.267 3.456.451 0 2.355 1.72 3.012 2.722.572.872 21.341 21.934 23.793 24.128.845.756 14.23 14.395 19.583 19.953 2.011 2.089 4.756 4.812 6.1 6.052 2.88 2.658 3.399 4.582 1.344 4.976-.605.116-13.032.247-27.615.29-23.075.069-26.563.157-26.894.679-.41.649-.555 123.148-.147 124.668.199.742 5.678-4.55 37.494-36.21 50.438-50.191 47.55-47.497 49.692-46.359.424.225 12.29 11.872 26.37 25.883 23.304 23.19 30.855 30.581 36.307 35.54 1.041.947 1.893 1.875 1.893 2.061 0 .622 16.493 16.872 17.521 17.263.737.28 1.102.245 1.34-.13.58-.915.421-122.216-.161-122.592-.275-.178-12.506-.414-27.18-.524-16.99-.127-26.823-.345-27.072-.6-2.05-2.095-3.98.073 31.919-35.863C276.515 45.772 294.17 28.059 300 22.176c5.83-5.884 11.145-11.206 11.811-11.827l1.21-1.129 1.19.762c.654.419 19.986 19.585 42.961 42.59s42.009 41.828 42.3 41.828c.434 0 .528-8.351.528-47.2V0H0zm372 52.293c-19.499.072-26.84.224-27.5.57l-.9.472-.032 133.233-.032 133.232-.872 1.6-.871 1.6h-56.307l-.843-1.129-.843-1.13-.2-69.537c-.11-38.246-.35-69.687-.533-69.871-.366-.365-53.662-.472-54.026-.108-.123.124-.348 31.758-.499 70.298-.268 68.655-.29 70.087-1.05 70.775-1.304 1.18-56.708 1.286-57.884.11-.804-.804-.808-1.117-.808-69.782 0-68.885-.033-70.69-1.325-71.512-.261-.166-12.649-.305-27.528-.308l-27.054-.006-.241.9c-.133.495-.244 31.923-.247 69.84-.004 62.606-.064 69.064-.651 70.3l-.645 1.36H83.408c-27.418 0-27.711-.008-28.754-.829l-1.054-.829V232.985c0-132.228-.011-134.163-.774-134.571-.51-.273-9.624-.414-26.8-.414H0v302h400V248.8c0-143.77-.034-151.195-.7-151.103-.385.053-12.67.141-27.3.196"/><path fill="#b2c897" d="M311.769 10.369c-.643.615-5.939 5.93-11.769 11.811s-23.485 23.592-39.233 39.357c-35.899 35.936-33.969 33.768-31.919 35.863.249.255 10.082.473 27.072.6 14.674.11 26.905.346 27.18.524.582.376.741 121.677.161 122.592-.238.375-.603.41-1.34.13-1.028-.391-17.521-16.641-17.521-17.263 0-.186-.852-1.114-1.893-2.061-5.452-4.959-13.003-12.35-36.307-35.54-14.08-14.011-25.946-25.658-26.37-25.883-2.142-1.138.746-3.832-49.692 46.359-31.816 31.66-37.295 36.952-37.494 36.21-.408-1.52-.263-124.019.147-124.668.331-.522 3.819-.61 26.894-.679 14.583-.043 27.01-.174 27.615-.29 2.055-.394 1.536-2.318-1.344-4.976-1.344-1.24-4.089-3.963-6.1-6.052-5.353-5.558-18.738-19.197-19.583-19.953-2.452-2.194-23.221-23.256-23.793-24.128-.657-1.002-2.561-2.722-3.012-2.722-.351 0-2.478-2.25-3.267-3.456-.412-.629-1.139-1.451-1.615-1.826s-2.108-1.978-3.626-3.562C93.972 19.287 84.883 10.42 83.86 10.171c-1.087-.265-3.048 1.63-41.807 40.376C19.38 73.213 1.08 91.2.693 91.2c-.426 0-.693.308-.693.8 0 2.147 2.906-.6 42.102-39.809 40.017-40.03 40.613-40.604 41.718-40.184.619.236 15.922 15.312 34.217 33.71C171.339 99.321 166.901 94.686 165.8 95.6c-.377.313-8.02.409-26.465.333-27.837-.116-27.307-.151-28.032 1.866-.158.441-.223 60.927-.144 134.413l.144 133.613-1.07.487c-2.175.991-53.092.672-54.379-.341l-1.054-.829V97.292l-.986-.646c-.882-.578-3.758-.646-27.4-.646H0v2h26.026c17.176 0 26.29.141 26.8.414.763.408.774 2.343.774 134.571v134.157l1.054.829c1.043.821 1.336.829 28.754.829h27.701l.645-1.36c.587-1.236.647-7.694.651-70.3.003-37.917.114-69.345.247-69.84l.241-.9 27.054.006c14.879.003 27.267.142 27.528.308 1.292.822 1.325 2.627 1.325 71.512 0 68.665.004 68.978.808 69.782 1.176 1.176 56.58 1.07 57.884-.11.76-.688.782-2.12 1.05-70.775.151-38.54.376-70.174.499-70.298.364-.364 53.66-.257 54.026.108.183.184.423 31.625.533 69.871l.2 69.537.843 1.13.843 1.129h56.307l.871-1.6.872-1.6.032-133.156c.03-126.324.068-133.183.732-133.687.565-.429 5.757-.534 26.95-.544 30.018-.015 28.75.076 28.75-2.063 0-1.018-.181-1.55-.529-1.55-.291 0-19.416-18.906-42.5-42.014-45.553-45.6-43.474-43.668-45.202-42.017m2.357 2.086c2.032 1.056 82.811 82.368 82.318 82.861-.364.365-6.99.533-26.887.684l-26.403.2-.768 1c-.754.981-.768 3.474-.777 134.686l-.009 133.686-.9.514c-.95.543-49.847 1.024-52.595.518-.712-.131-1.478-.58-1.701-.997-.272-.508-.406-44.659-.406-134.023l-.001-133.266-1.199-1.12-1.2-1.121-25.899-.138c-14.244-.077-26.129-.287-26.409-.469-.648-.419.6-2.031 5.165-6.67 15.265-15.511 28.293-28.637 30.589-30.818 1.516-1.44 8.336-8.327 15.156-15.304 24.645-25.214 30.059-30.582 30.926-30.666.07-.007.52.193 1 .443M199.955 141.968c.593.422 4.041 3.788 7.661 7.479 8.645 8.812 5.764 5.943 42.006 41.838 30.453 30.163 33.702 33.544 32.787 34.109-.221.137-12.284.235-26.806.217-29.22-.035-28.445-.1-28.951 2.431-.141.702-.135 31.746.012 68.986.25 63.141.223 67.78-.407 68.741l-.675 1.031h-55.054l-.464-1.019c-.346-.76-.464-18.498-.464-69.977v-68.959l-.9-.632c-.799-.561-3.874-.628-27.511-.601-14.637.017-26.913-.085-27.282-.226-.939-.361-1.509.253 14.77-15.875 7.962-7.888 24.576-24.37 36.919-36.627 33.405-33.168 31.231-31.093 33.142-31.644.076-.022.624.305 1.217.728"/></g></svg>

<svg id="svg" version="1.1" xmlns="http://www.w3.org/2000/svg" xmlns:xlink="http://www.w3.org/1999/xlink" width="400" height="400" viewBox="0, 0, 400,400"><g id="svgg"><path id="path0" d="M42.102 52.191 C 16.992 77.309,1.219 92.800,0.753 92.800 C 0.141 92.800,0.000 93.100,0.000 94.400 L 0.000 96.000 26.414 96.000 C 50.056 96.000,52.932 96.068,53.814 96.646 L 54.800 97.292 54.800 231.217 L 54.800 365.142 55.854 365.971 C 57.141 366.984,108.058 367.303,110.233 366.312 L 111.303 365.825 111.159 232.212 C 111.080 158.726,111.145 98.240,111.303 97.799 C 112.028 95.782,111.498 95.817,139.335 95.933 C 157.780 96.009,165.423 95.913,165.800 95.600 C 166.901 94.686,171.339 99.321,118.037 45.717 C 99.742 27.319,84.439 12.243,83.820 12.007 C 82.715 11.587,82.119 12.161,42.102 52.191 " stroke="none" fill="#d5b718" fill-rule="evenodd"></path><path id="path1" d="M197.800 141.540 C 196.883 141.838,195.891 142.804,165.596 172.884 C 153.253 185.141,136.639 201.623,128.677 209.511 C 112.398 225.639,112.968 225.025,113.907 225.386 C 114.276 225.527,126.552 225.629,141.189 225.612 C 164.826 225.585,167.901 225.652,168.700 226.213 L 169.600 226.845 169.600 295.804 C 169.600 347.283,169.718 365.021,170.064 365.781 L 170.528 366.800 198.055 366.800 L 225.582 366.800 226.257 365.769 C 226.887 364.808,226.914 360.169,226.664 297.028 C 226.517 259.788,226.511 228.744,226.652 228.042 C 227.158 225.511,226.383 225.576,255.603 225.611 C 270.125 225.629,282.188 225.531,282.409 225.394 C 283.324 224.829,280.075 221.448,249.622 191.285 C 213.380 155.390,216.261 158.259,207.616 149.447 C 201.800 143.518,199.194 141.108,198.738 141.240 C 198.662 141.262,198.240 141.397,197.800 141.540 " stroke="none" fill="#1988e9" fill-rule="evenodd"></path><path id="path2" d="M312.279 12.444 C 311.481 12.908,301.065 23.377,282.200 42.678 C 275.380 49.655,268.560 56.542,267.044 57.982 C 264.748 60.163,251.720 73.289,236.455 88.800 C 231.890 93.439,230.642 95.051,231.290 95.470 C 231.570 95.652,243.455 95.862,257.699 95.939 L 283.598 96.077 284.798 97.198 L 285.997 98.318 285.998 231.584 C 285.998 320.948,286.132 365.099,286.404 365.607 C 286.627 366.024,287.393 366.473,288.105 366.604 C 290.853 367.110,339.750 366.629,340.700 366.086 L 341.600 365.572 341.609 231.886 C 341.618 100.674,341.632 98.181,342.386 97.200 L 343.154 96.200 369.557 96.000 C 389.454 95.849,396.080 95.681,396.444 95.316 C 396.937 94.823,316.158 13.511,314.126 12.455 C 313.091 11.916,313.185 11.916,312.279 12.444 " stroke="none" fill="#34c734" fill-rule="evenodd"></path><path id="path3" d="M0.000 45.600 C 0.000 88.598,0.040 91.200,0.693 91.200 C 1.080 91.200,19.380 73.213,42.053 50.547 C 80.812 11.801,82.773 9.906,83.860 10.171 C 84.883 10.420,93.972 19.287,104.960 30.756 C 106.478 32.340,108.110 33.943,108.586 34.318 C 109.062 34.693,109.789 35.515,110.201 36.144 C 110.990 37.350,113.117 39.600,113.468 39.600 C 113.919 39.600,115.823 41.320,116.480 42.322 C 117.052 43.194,137.821 64.256,140.273 66.450 C 141.118 67.206,154.503 80.845,159.856 86.403 C 161.867 88.492,164.612 91.215,165.956 92.455 C 168.836 95.113,169.355 97.037,167.300 97.431 C 166.695 97.547,154.268 97.678,139.685 97.721 C 116.610 97.790,113.122 97.878,112.791 98.400 C 112.381 99.049,112.236 221.548,112.644 223.068 C 112.843 223.810,118.322 218.518,150.138 186.858 C 200.576 136.667,197.688 139.361,199.830 140.499 C 200.254 140.724,212.120 152.371,226.200 166.382 C 249.504 189.572,257.055 196.963,262.507 201.922 C 263.548 202.869,264.400 203.797,264.400 203.983 C 264.400 204.605,280.893 220.855,281.921 221.246 C 282.658 221.526,283.023 221.491,283.261 221.116 C 283.841 220.201,283.682 98.900,283.100 98.524 C 282.825 98.346,270.594 98.110,255.920 98.000 C 238.930 97.873,229.097 97.655,228.848 97.400 C 226.798 95.305,224.868 97.473,260.767 61.537 C 276.515 45.772,294.170 28.059,300.000 22.176 C 305.830 16.292,311.145 10.970,311.811 10.349 L 313.021 9.220 314.211 9.982 C 314.865 10.401,334.197 29.567,357.172 52.572 C 380.146 75.577,399.181 94.400,399.472 94.400 C 399.906 94.400,400.000 86.049,400.000 47.200 L 400.000 0.000 200.000 0.000 L 0.000 0.000 0.000 45.600 M372.000 97.893 C 352.501 97.965,345.160 98.117,344.500 98.463 L 343.600 98.935 343.568 232.168 L 343.536 365.400 342.664 367.000 L 341.793 368.600 313.640 368.600 L 285.486 368.600 284.643 367.471 L 283.800 366.341 283.600 296.804 C 283.490 258.558,283.250 227.117,283.067 226.933 C 282.701 226.568,229.405 226.461,229.041 226.825 C 228.918 226.949,228.693 258.583,228.542 297.123 C 228.274 365.778,228.252 367.210,227.492 367.898 C 226.188 369.078,170.784 369.184,169.608 368.008 C 168.804 367.204,168.800 366.891,168.800 298.226 C 168.800 229.341,168.767 227.536,167.475 226.714 C 167.214 226.548,154.826 226.409,139.947 226.406 L 112.893 226.400 112.652 227.300 C 112.519 227.795,112.408 259.223,112.405 297.140 C 112.401 359.746,112.341 366.204,111.754 367.440 L 111.109 368.800 83.408 368.800 C 55.990 368.800,55.697 368.792,54.654 367.971 L 53.600 367.142 53.600 232.985 C 53.600 100.757,53.589 98.822,52.826 98.414 C 52.316 98.141,43.202 98.000,26.026 98.000 L 0.000 98.000 0.000 249.000 L 0.000 400.000 200.000 400.000 L 400.000 400.000 400.000 248.800 C 400.000 105.030,399.966 97.605,399.300 97.697 C 398.915 97.750,386.630 97.838,372.000 97.893 " stroke="none" fill="#fbfbfb" fill-rule="evenodd"></path><path id="path4" d="M311.769 10.369 C 311.126 10.984,305.830 16.299,300.000 22.180 C 294.170 28.061,276.515 45.772,260.767 61.537 C 224.868 97.473,226.798 95.305,228.848 97.400 C 229.097 97.655,238.930 97.873,255.920 98.000 C 270.594 98.110,282.825 98.346,283.100 98.524 C 283.682 98.900,283.841 220.201,283.261 221.116 C 283.023 221.491,282.658 221.526,281.921 221.246 C 280.893 220.855,264.400 204.605,264.400 203.983 C 264.400 203.797,263.548 202.869,262.507 201.922 C 257.055 196.963,249.504 189.572,226.200 166.382 C 212.120 152.371,200.254 140.724,199.830 140.499 C 197.688 139.361,200.576 136.667,150.138 186.858 C 118.322 218.518,112.843 223.810,112.644 223.068 C 112.236 221.548,112.381 99.049,112.791 98.400 C 113.122 97.878,116.610 97.790,139.685 97.721 C 154.268 97.678,166.695 97.547,167.300 97.431 C 169.355 97.037,168.836 95.113,165.956 92.455 C 164.612 91.215,161.867 88.492,159.856 86.403 C 154.503 80.845,141.118 67.206,140.273 66.450 C 137.821 64.256,117.052 43.194,116.480 42.322 C 115.823 41.320,113.919 39.600,113.468 39.600 C 113.117 39.600,110.990 37.350,110.201 36.144 C 109.789 35.515,109.062 34.693,108.586 34.318 C 108.110 33.943,106.478 32.340,104.960 30.756 C 93.972 19.287,84.883 10.420,83.860 10.171 C 82.773 9.906,80.812 11.801,42.053 50.547 C 19.380 73.213,1.080 91.200,0.693 91.200 C 0.267 91.200,0.000 91.508,0.000 92.000 C 0.000 94.147,2.906 91.400,42.102 52.191 C 82.119 12.161,82.715 11.587,83.820 12.007 C 84.439 12.243,99.742 27.319,118.037 45.717 C 171.339 99.321,166.901 94.686,165.800 95.600 C 165.423 95.913,157.780 96.009,139.335 95.933 C 111.498 95.817,112.028 95.782,111.303 97.799 C 111.145 98.240,111.080 158.726,111.159 232.212 L 111.303 365.825 110.233 366.312 C 108.058 367.303,57.141 366.984,55.854 365.971 L 54.800 365.142 54.800 231.217 L 54.800 97.292 53.814 96.646 C 52.932 96.068,50.056 96.000,26.414 96.000 L 0.000 96.000 0.000 97.000 L 0.000 98.000 26.026 98.000 C 43.202 98.000,52.316 98.141,52.826 98.414 C 53.589 98.822,53.600 100.757,53.600 232.985 L 53.600 367.142 54.654 367.971 C 55.697 368.792,55.990 368.800,83.408 368.800 L 111.109 368.800 111.754 367.440 C 112.341 366.204,112.401 359.746,112.405 297.140 C 112.408 259.223,112.519 227.795,112.652 227.300 L 112.893 226.400 139.947 226.406 C 154.826 226.409,167.214 226.548,167.475 226.714 C 168.767 227.536,168.800 229.341,168.800 298.226 C 168.800 366.891,168.804 367.204,169.608 368.008 C 170.784 369.184,226.188 369.078,227.492 367.898 C 228.252 367.210,228.274 365.778,228.542 297.123 C 228.693 258.583,228.918 226.949,229.041 226.825 C 229.405 226.461,282.701 226.568,283.067 226.933 C 283.250 227.117,283.490 258.558,283.600 296.804 L 283.800 366.341 284.643 367.471 L 285.486 368.600 313.640 368.600 L 341.793 368.600 342.664 367.000 L 343.536 365.400 343.568 232.244 C 343.598 105.920,343.636 99.061,344.300 98.557 C 344.865 98.128,350.057 98.023,371.250 98.013 C 401.268 97.998,400.000 98.089,400.000 95.950 C 400.000 94.932,399.819 94.400,399.471 94.400 C 399.180 94.400,380.055 75.494,356.971 52.386 C 311.418 6.786,313.497 8.718,311.769 10.369 M314.126 12.455 C 316.158 13.511,396.937 94.823,396.444 95.316 C 396.080 95.681,389.454 95.849,369.557 96.000 L 343.154 96.200 342.386 97.200 C 341.632 98.181,341.618 100.674,341.609 231.886 L 341.600 365.572 340.700 366.086 C 339.750 366.629,290.853 367.110,288.105 366.604 C 287.393 366.473,286.627 366.024,286.404 365.607 C 286.132 365.099,285.998 320.948,285.998 231.584 L 285.997 98.318 284.798 97.198 L 283.598 96.077 257.699 95.939 C 243.455 95.862,231.570 95.652,231.290 95.470 C 230.642 95.051,231.890 93.439,236.455 88.800 C 251.720 73.289,264.748 60.163,267.044 57.982 C 268.560 56.542,275.380 49.655,282.200 42.678 C 306.845 17.464,312.259 12.096,313.126 12.012 C 313.196 12.005,313.646 12.205,314.126 12.455 M199.955 141.968 C 200.548 142.390,203.996 145.756,207.616 149.447 C 216.261 158.259,213.380 155.390,249.622 191.285 C 280.075 221.448,283.324 224.829,282.409 225.394 C 282.188 225.531,270.125 225.629,255.603 225.611 C 226.383 225.576,227.158 225.511,226.652 228.042 C 226.511 228.744,226.517 259.788,226.664 297.028 C 226.914 360.169,226.887 364.808,226.257 365.769 L 225.582 366.800 198.055 366.800 L 170.528 366.800 170.064 365.781 C 169.718 365.021,169.600 347.283,169.600 295.804 L 169.600 226.845 168.700 226.213 C 167.901 225.652,164.826 225.585,141.189 225.612 C 126.552 225.629,114.276 225.527,113.907 225.386 C 112.968 225.025,112.398 225.639,128.677 209.511 C 136.639 201.623,153.253 185.141,165.596 172.884 C 199.001 139.716,196.827 141.791,198.738 141.240 C 198.814 141.218,199.362 141.545,199.955 141.968 " stroke="none" fill="#b2c897" fill-rule="evenodd"></path></g></svg>
